svg/building/greatwall_fill.svg

<?xml version="1.0" encoding="UTF-8"?>
<svg width="24px" height="24px" viewBox="0 0 24 24" version="1.1" xmlns="http://www.w3.org/2000/svg" xmlns:xlink="http://www.w3.org/1999/xlink">
    <title>greatwall_fill</title>
    <g id="页面-1" stroke="none" stroke-width="1" fill="none" fill-rule="evenodd">
        <g id="Building" transform="translate(-672.000000, -48.000000)" fill-rule="nonzero">
            <g id="greatwall_fill" transform="translate(672.000000, 48.000000)">
                 <path d="M24,0 L24,24 L0,24 L0,0 L24,0 Z M12.5934901,23.257841 L12.5819402,23.2595131 L12.5108777,23.2950439 L12.4918791,23.2987469 L12.4918791,23.2987469 L12.4767152,23.2950439 L12.4056548,23.2595131 C12.3958229,23.2563662 12.3870493,23.2590235 12.3821421,23.2649074 L12.3780323,23.275831 L12.360941,23.7031097 L12.3658947,23.7234994 L12.3769048,23.7357139 L12.4804777,23.8096931 L12.4953491,23.8136134 L12.4953491,23.8136134 L12.5071152,23.8096931 L12.6106902,23.7357139 L12.6232938,23.7196733 L12.6232938,23.7196733 L12.6266527,23.7031097 L12.609561,23.275831 C12.6075724,23.2657013 12.6010112,23.2592993 12.5934901,23.257841 L12.5934901,23.257841 Z M12.8583906,23.1452862 L12.8445485,23.1473072 L12.6598443,23.2396597 L12.6498822,23.2499052 L12.6498822,23.2499052 L12.6471943,23.2611114 L12.6650943,23.6906389 L12.6699349,23.7034178 L12.6699349,23.7034178 L12.678386,23.7104931 L12.8793402,23.8032389 C12.8914285,23.8068999 12.9022333,23.8029875 12.9078286,23.7952264 L12.9118235,23.7811639 L12.8776777,23.1665331 C12.8752882,23.1545897 12.8674102,23.1470016 12.8583906,23.1452862 L12.8583906,23.1452862 Z M12.1430473,23.1473072 C12.1332178,23.1423925 12.1221763,23.1452606 12.1156365,23.1525954 L12.1099173,23.1665331 L12.0757714,23.7811639 C12.0751323,23.7926639 12.0828099,23.8018602 12.0926481,23.8045676 L12.108256,23.8032389 L12.3092106,23.7104931 L12.3186497,23.7024347 L12.3186497,23.7024347 L12.3225043,23.6906389 L12.340401,23.2611114 L12.337245,23.2485176 L12.337245,23.2485176 L12.3277531,23.2396597 L12.1430473,23.1473072 Z" id="MingCute" fill-rule="nonzero"></path>
                <path d="M22,17 L22,19.5 C22,20.2796706 21.4050879,20.9204457 20.6444558,20.9931332 L20.5,21 L17,21 L17,17 L22,17 Z M15,17 L15,21 L9,21 L9,17 L15,17 Z M7,17 L7,21 L3.5,21 C2.72030118,21 2.079551,20.4050879 2.00686655,19.6444558 L2,19.5 L2,17 L7,17 Z M22,11 L22,15 L13,15 L13,11 L22,11 Z M11,11 L11,15 L2,15 L2,11 L11,11 Z M5.5,3 C6.27969882,3 6.920449,3.59488554 6.99313345,4.35553954 L7,4.5 L7,6 L9,6 L9,4.5 C9,3.72030118 9.59488554,3.079551 10.3555395,3.00686655 L10.5,3 L13.5,3 C14.2796706,3 14.9204457,3.59488554 14.9931332,4.35553954 L15,4.5 L15,6 L17,6 L17,4.5 C17,3.72030118 17.5949121,3.079551 18.3555442,3.00686655 L18.5,3 L20.5,3 C21.2796706,3 21.9204457,3.59488554 21.9931332,4.35553954 L22,4.5 L22,9 L2,9 L2,4.5 C2,3.72030118 2.59488554,3.079551 3.35553954,3.00686655 L3.5,3 L5.5,3 Z" id="形状" fill="#09244B"></path>
            </g>
        </g>
    </g>
</svg>

<svg xmlns="http://www.w3.org/2000/svg" width="24" height="24"><g fill="none" fill-rule="nonzero"><path d="M24 0v24H0V0h24ZM12.593 23.258l-.011.002-.071.035-.02.004-.014-.004-.071-.035c-.01-.004-.019-.001-.024.005l-.004.01-.017.428.005.02.01.013.104.074.015.004.012-.004.104-.074.012-.016.004-.017-.017-.427c-.002-.01-.009-.017-.017-.018Zm.265-.113-.013.002-.185.093-.01.01-.003.011.018.43.005.012.008.007.201.093c.012.004.023 0 .029-.008l.004-.014-.034-.614c-.003-.012-.01-.02-.02-.022Zm-.715.002a.023.023 0 0 0-.027.006l-.006.014-.034.614c0 .012.007.02.017.024l.015-.002.201-.093.01-.008.004-.011.017-.43-.003-.012-.01-.01-.184-.092Z"/><path fill="#09244B" d="M22 17v2.5a1.5 1.5 0 0 1-1.356 1.493L20.5 21H17v-4h5Zm-7 0v4H9v-4h6Zm-8 0v4H3.5a1.5 1.5 0 0 1-1.493-1.356L2 19.5V17h5Zm15-6v4h-9v-4h9Zm-11 0v4H2v-4h9ZM5.5 3a1.5 1.5 0 0 1 1.493 1.356L7 4.5V6h2V4.5a1.5 1.5 0 0 1 1.356-1.493L10.5 3h3a1.5 1.5 0 0 1 1.493 1.356L15 4.5V6h2V4.5a1.5 1.5 0 0 1 1.356-1.493L18.5 3h2a1.5 1.5 0 0 1 1.493 1.356L22 4.5V9H2V4.5a1.5 1.5 0 0 1 1.356-1.493L3.5 3h2Z"/></g></svg>
